X: 1949
T: Under the Willow
B: australian traditional tunes wiki
M:3/4
L:1/8
R: Waltz
Q: 1/4=100
K:G
V:1 
||"G"B4B2|"D7"c2B2c2|"G"d4g2|d4"(D7)"c2|"G"B3cB2|B2A2G2|B4A2|"D7"A6|
"G"B4B2|"D7"c2B2c2|"G"d4g2|d4"(D7)"c2|"G"B3AG2|"D7"A2B2A2|"G"G6-|G4"(D7)"ef||
"G"g6|"D7"f4e2|"G"d4g2|d4"(D7)"c2|"G"B3cB2|B2A2G2|B4A2|"D7"A4ef|
"G"g6|"D7"f4e2|"G"d4g2|d4"(D7)"c2|"G"B3AG2|"D7"A2B2A2|"G"G6-|G4z||
% abcbook-tune_id 6342d5be6898f14a2288d38e


% abcbook-boost 0
% abcbook-tablature 
% abcbook-transpose 
% abcbook-lastupdated 1665324489701
% abcbook-soundfonts 
% abcbook-repeats 1
% NFF Book 2009

